X:1
T:Title
%%score 1 2 3
L:1/8
M:3/2
K:C
V:1 treble nm="Part_1"
V:2 treble-8 nm="Part_2"
V:3 treble-8 nm="Part_3"
V:1
 E6 F2 G4 | E8 F2 E2 | D8 G2 A2 | c4 B6 A2 | A6 A2 G2 F2 | A8 z4 | B6 d2 c2 B2 | d8 A2 G2 | %8
 F2 E4 E2 D2 C2 | E12 | c6 A2 G4 | A6 F2 E2 F2 | G8 D4 | C2 E4 E2 D2 C2 | E4 z4 F2 E2 | D8 G2 A2 | %16
 G4 F6 E2 | E4 D6 C2 | E4 E8 | C8 D2 E2 | F6 E2 D4- | D4 ^F8 | G8 A2 G2 | F4 E4 z4 | G6 F2 D4- | %25
 D2 E2 G8 | F2 E2 D2 E2 D2 C2 | E12 | G8 A2 B2 | c4 B6 A2 | A4 G6 F2 | A8 z4 | c8 c4 | d4 e6 d2 | %34
 c4 B6 A2 | c2 B2 G2 G2 F2 E2 | G8 z4 | ^F6 G2 A4 | A8 G4 | F4 D2 E4 F2 | D8 G2 F2 | E6 D4 C2 | %42
 E12 | B6 c2 d4 | e4 e4 z4 | e8 d4 | e4 d4 B2 c2 | d8 c2 B2 | A4 G4 A4 | B4 B4 z4 | c4 A4 G4 | %51
 F2 G2 A4 z4 | A4 G2 F4 E2 | D6 D2 C2 B,2 | D8 F2 E2 | D6 C2 E4 | E12 | G8 D4 | D4 E2 F4 D2 | %59
 C6 E2 D2 C2 | E4 F2 D4 C2 | E4 z4 F2 E2 | D8 G2 A2 | G4 F6 E2 | E6 E2 D2 C2 | E12 | G8 A2 B2 | %67
 c8 G4 | c6 B2 A4 | G6 E2 F2 G2 | E4 z4 F4 | D8 F4 | G4 A6 G2 | G4 F6 E2 | E4 D4 E2 C2 | E12 |] %76
V:2
 E4 G2 A2 B4 | G8 A2 G2 | F8 G2 c2 | e4 d6 c2 | A2 c4 A2 B4 | A12 | d8 e4 | d8 c2 B2 | %8
 A2 G4 E2 F4 | E12 | c8 B4 | c4 A4 E2 A2 | G8 F4 | E2 G4 E2 F4 | E8 A2 G2 | F8 G2 c2 | B4 A8 | %17
 G4 F8 | E12 | E8 F2 G2 | A6 G2 F4- | F4 A8 | G8 c2 B2 | A4 G4 z4 | G6 A2 F4- | F2 G2 B6 G2 | %26
 A2 G2 F2 E2 F4 | E12 | G8 F2 G2 | A4 G8 | c4 B8 | A8 z4 | A8 c4 | B4 c6 d2 | e4 d8 | c4 B2 G2 A4 | %36
 G12 | d6 B2 A4 | c6 A2 B2 c2 | d2 B4 G2 A4 | B4 G6 A2 | G4 E2 G2 F4 | E12 | e8 f4 | e8 d4 | %45
 c8 B4 | c4 d4 e4 | d8 A2 G2 | c4 B4 c4 | G8 G4 | F4 A4 B4- | B4 A8 | F4 G2 B2 A2 G2 | F6 D2 E4 | %54
 D8 A2 G2 | F8 E4 | E12 | G8 F4 | F4 G2 A2 F4 | E6 G2 F4 | E4 A2 F4 E2 | E4 G4 A2 G2 | F8 G2 c2 | %63
 B4 A8 | G4 E2 G2 F4 | E12 | G4 B4 c2 d2 | c8 B4 | e6 d2 c4 | B4 G4 A2 B2 | G8 A4 | F8 A4 | %72
 B4 c6 B2 | B4 A8 | G4 F8 | E12 |] %76
V:3
 B6 c2 d4 | B8 c2 B2 | A8 d2 e2 | g4 f6 e2 | e6 e2 d2 c2 | e8 z4 | f6 a2 g2 f2 | a8 e2 d2 | %8
 c2 B4 B2 A2 G2 | B12 | g6 e2 d4 | e6 c2 B2 c2 | d8 A4 | G2 B4 B2 A2 G2 | B4 z4 c2 B2 | A8 d2 e2 | %16
 d4 c6 B2 | B4 A6 G2 | B4 B8 | G8 A2 B2 | c6 B2 A4- | A4 ^c8 | d8 e2 d2 | c4 B4 z4 | d6 c2 A4- | %25
 A2 B2 d8 | c2 B2 A2 B2 A2 G2 | B12 | z12 | z12 | z12 | z12 | z12 | z12 | z12 | z12 | z12 | z12 | %38
 z12 | z12 | z12 | z12 | z12 | z12 | z12 | z12 | z12 | z12 | z12 | z12 | z12 | z12 | z12 | z12 | %54
 z12 | z12 | z12 | d8 A4 | A4 B2 c4 A2 | G6 B2 A2 G2 | B4 c2 A4 G2 | B4 z4 c2 B2 | A8 d2 e2 | %63
 d4 c6 B2 | B6 B2 A2 G2 | B12 | d8 e2 f2 | g8 d4 | g6 f2 e4 | d6 B2 c2 d2 | B4 z4 c4 | A8 c4 | %72
 d4 e6 d2 | d4 c6 B2 | B4 A4 B2 G2 | B12 |] %76

